X:3518
L:1/8
Q:1/4=120
M:6/8
K:G
 c | (B/c/d)!wedge!c BGB | cAc BGB | (B/c/d)!wedge!c BGB | AFG ABc | (B/c/d)!wedge!c BGB | 
 cAc BGB | gfe dcB | AFG AB :: c | B>AG GDG | BGB gdc | TBAG GDG | AFG ABc | B>AG GDG | BGB gdB | 
 efg dcB | AFG AB :|

